dist/assets/images/icons/ico-slide-9.svg

<svg width="28" height="32" viewBox="0 0 28 32" fill="none" xmlns="http://www.w3.org/2000/svg">
<path d="M5.24978 28.2565L5.23787 28.2424L5.22527 28.2288C2.27602 25.0534 0.671556 20.8473 0.752952 16.5017C0.801257 14.6419 1.57315 12.8762 2.90154 11.5837C4.22764 10.2934 6.0026 9.57736 7.84591 9.58749C9.09911 9.63603 10.3446 9.80824 11.5643 10.1017L11.5816 10.1058L11.599 10.1091L12.0782 10.2007L12.0782 10.2008L12.0901 10.2029C13.9192 10.5218 15.7988 10.3684 17.5525 9.75734C17.7942 9.68271 17.9773 9.63052 18.1204 9.60023L18.1206 9.60019C21.4018 8.90467 24.4716 10.1257 26.0124 12.5978L26.0128 12.5984C26.995 14.1708 27.3648 16.071 27.0737 18.4716L27.0736 18.4716L27.0723 18.4846C26.717 21.9142 25.3805 25.1661 23.2252 27.8467C21.4843 29.9626 19.7888 30.9122 17.8632 31.0264C17.1533 31.0682 15.1959 31.1057 13.2408 31.0781C12.2653 31.0644 11.3013 31.0345 10.5017 30.9819C9.68155 30.928 9.12059 30.8544 8.87748 30.7795C7.46812 30.2763 6.21618 29.4059 5.24978 28.2565Z" stroke="#DF0112" stroke-width="1.5"/>
<path d="M13.4609 3.01299C11.8762 0.709788 5.46094 1.01319 5.46094 1.01319C5.46094 1.01319 6.46094 5.50006 8.96094 7C10.6274 7.99986 13.9609 8.01299 13.9609 8.01299C13.9609 8.01299 14.5733 4.62963 13.4609 3.01299Z" stroke="#0000FF" stroke-width="1.5"/>
</svg>

<svg width="28" height="32" fill="none" xmlns="http://www.w3.org/2000/svg"><path d="M5.25 28.256l-.012-.014-.013-.013A16.772 16.772 0 01.753 16.502a7.12 7.12 0 012.149-4.918 7.034 7.034 0 014.944-1.997c1.253.049 2.499.221 3.718.515l.018.004.017.003.48.092h0l.011.002c1.83.319 3.709.165 5.462-.446a6.91 6.91 0 01.568-.157h0c3.282-.695 6.352.526 7.892 2.998h0c.983 1.573 1.353 3.473 1.062 5.874h0l-.002.013a17.882 17.882 0 01-3.847 9.362c-1.74 2.116-3.436 3.065-5.362 3.18-.71.041-2.667.079-4.622.051a55.464 55.464 0 01-2.74-.096c-.82-.054-1.38-.128-1.624-.203a8.455 8.455 0 01-3.627-2.523z" stroke="#DF0112" stroke-width="1.5"/><path d="M13.46 3.013c-1.584-2.303-8-2-8-2S6.46 5.5 8.96 7c1.667 1 5 1.013 5 1.013s.613-3.383-.5-5z" stroke="#00F" stroke-width="1.5"/></svg>
